svg/furkot/scott-de-jonge/pier.svg

<svg viewBox="0 0 512 512" xmlns="http://www.w3.org/2000/svg"><path d="m256.938 69.657c9.385 0 17.553-3.302 24.506-9.906s10.427-14.599 10.427-23.984-3.475-17.38-10.427-23.984-15.121-9.906-24.506-9.906-17.379 3.302-23.983 9.906-9.907 14.599-9.907 23.984 3.303 17.38 9.907 23.984 14.599 9.906 23.983 9.906zm214.29 391.04c-9.732-4.171-19.987-6.257-30.762-6.257s-21.03 2.086-30.762 6.257-19.812 6.256-30.24 6.256-20.508-2.085-30.24-6.256c-10.428-4.171-21.03-6.257-31.805-6.257s-21.029 2.086-30.762 6.257-19.812 6.256-30.24 6.256-20.508-2.085-30.24-6.256c-9.733-4.171-19.987-6.257-30.762-6.257s-21.377 2.086-31.804 6.257c-9.733 4.171-19.813 6.256-30.241 6.256s-20.508-2.085-30.24-6.256-19.987-6.257-30.762-6.257-21.029 2.086-30.761 6.257c-10.428 4.171-20.856 6.256-31.284 6.256v45.882c11.124 0 21.551-2.085 31.284-6.256 9.732-4.867 19.986-7.3 30.761-7.3s21.03 2.433 30.762 7.3c9.732 4.171 19.813 6.256 30.24 6.256s20.508-2.085 30.241-6.256c10.427-4.867 21.029-7.3 31.804-7.3s21.03 2.433 30.762 7.3c9.732 4.171 19.812 6.256 30.24 6.256s20.508-2.085 30.24-6.256c9.734-4.867 19.988-7.3 30.762-7.3 10.775 0 21.377 2.433 31.805 7.3 9.037 4.171 18.944 6.256 29.719 6.256 10.777 0 21.03-2.085 30.761-6.256 9.735-4.867 19.988-7.3 30.762-7.3 10.775 0 21.03 2.433 30.762 7.3 9.732 4.171 20.16 6.256 31.283 6.256v-45.882c-10.428 0-20.856-2.085-31.283-6.256z"/><path d="m474.356.834c-2.788-1.39-5.568-1.043-8.342 1.043l-125.133 126.175c0-.695-1.042-.868-3.128-.521l-3.128.521h-47.968l-50.053-52.138c-2.781-2.781-5.561-4.519-8.342-5.214-4.866-4.171-10.602-6.257-17.205-6.257s-11.992 2.433-16.163 7.3l-72.994 72.993c-2.781 2.782-4.171 6.257-4.171 10.428v47.968h-107.406v20.855h107.406v123.048c0 7.646 2.607 14.251 7.82 19.812s11.471 8.343 18.77 8.343 13.556-2.781 18.77-8.343 7.821-12.166 7.821-19.812v-123.048h75.079v160.588h-235.666v32.325h256.522v-192.913h32.326v-20.855h-128.261v-9.385l68.823-67.78 28.155 28.154c4.171 4.171 8.342 6.257 12.513 6.257h54.224c11.818 0 17.727-3.476 17.727-10.428v-11.47c6.257-6.257 19.291-18.944 39.104-38.061s37.018-35.802 51.617-50.053 23.636-23.81 27.112-28.676v395.21h10.428v-409.809c0-2.781-2.086-4.867-6.257-6.257z"/></svg>

<svg xmlns="http://www.w3.org/2000/svg" viewBox="0 0 512 512"><path d="M256.938 69.657C266.323 69.657 274.491 66.355 281.444 59.751S291.871 45.152 291.871 35.767 288.396 18.387 281.444 11.783 266.323 1.877 256.938 1.877 239.559 5.179 232.955 11.783 223.048 26.382 223.048 35.767 226.351 53.147 232.955 59.751 247.554 69.657 256.938 69.657ZM471.228 460.697C461.496 456.526 451.241 454.44 440.466 454.44S419.436 456.526 409.704 460.697 389.892 466.953 379.464 466.953 358.956 464.868 349.224 460.697C338.796 456.526 328.194 454.44 317.419 454.44S296.39 456.526 286.657 460.697 266.845 466.953 256.417 466.953 235.909 464.868 226.177 460.697C216.444 456.526 206.19 454.44 195.415 454.44S174.038 456.526 163.611 460.697C153.878 464.868 143.798 466.953 133.37 466.953S112.862 464.868 103.13 460.697 83.143 454.44 72.368 454.44 51.339 456.526 41.607 460.697C31.179 464.868 20.751 466.953 10.323 466.953V512.835C21.447 512.835 31.874 510.75 41.607 506.579 51.339 501.712 61.593 499.279 72.368 499.279S93.398 501.712 103.13 506.579C112.862 510.75 122.943 512.835 133.37 512.835S153.878 510.75 163.611 506.579C174.038 501.712 184.64 499.279 195.415 499.279S216.445 501.712 226.177 506.579C235.909 510.75 245.989 512.835 256.417 512.835S276.925 510.75 286.657 506.579C296.391 501.712 306.645 499.279 317.419 499.279 328.194 499.279 338.796 501.712 349.224 506.579 358.261 510.75 368.168 512.835 378.943 512.835 389.72 512.835 399.973 510.75 409.704 506.579 419.439 501.712 429.692 499.279 440.466 499.279 451.241 499.279 461.496 501.712 471.228 506.579 480.96 510.75 491.388 512.835 502.511 512.835V466.953C492.083 466.953 481.655 464.868 471.228 460.697Z"/><path d="M474.356 0.834C471.568-0.556 468.788-0.209 466.014 1.877L340.881 128.052C340.881 127.357 339.839 127.184 337.753 127.531L334.625 128.052H286.657L236.604 75.914C233.823 73.133 231.043 71.395 228.262 70.7 223.396 66.529 217.66 64.443 211.057 64.443S199.065 66.876 194.894 71.743L121.9 144.736C119.119 147.518 117.729 150.993 117.729 155.164V203.132H10.323V223.987H117.729V347.035C117.729 354.681 120.336 361.286 125.549 366.847S137.02 375.19 144.319 375.19 157.875 372.409 163.089 366.847 170.91 354.681 170.91 347.035V223.987H245.989V384.575H10.323V416.9H266.845V223.987H299.171V203.132H170.91V193.747L239.733 125.967 267.888 154.121C272.059 158.292 276.23 160.378 280.401 160.378H334.625C346.443 160.378 352.352 156.902 352.352 149.95V138.48C358.609 132.223 371.643 119.536 391.456 100.419S428.474 64.617 443.073 50.366 466.709 26.556 470.185 21.69V416.9H480.613V7.091C480.613 4.31 478.527 2.224 474.356 0.834Z"/></svg>
